outputs/icons/action/hand_round.svg

<svg xmlns="http://www.w3.org/2000/svg" width="1200" height="1200" fill="none"><g clip-path="url(#a)"><path fill="#000" d="M1026.62 342.188a51.56 51.56 0 0 0-51.56 51.562l-17.19 189.06a17.185 17.185 0 0 1-29.34 12.155 17.2 17.2 0 0 1-5.035-12.155L906.31 153.125a51.563 51.563 0 0 0-51.565-51.562 51.56 51.56 0 0 0-51.56 51.562l-17.19 395.315a17.185 17.185 0 0 1-29.34 12.15 17.2 17.2 0 0 1-5.035-12.15l-17.185-446.877A51.567 51.567 0 0 0 682.87 50a51.56 51.56 0 0 0-51.56 51.563L614.12 582.81a17.185 17.185 0 0 1-29.34 12.155 17.2 17.2 0 0 1-5.035-12.155L562.56 187.5a51.58 51.58 0 0 0-15.1-36.46 51.565 51.565 0 0 0-88.025 36.46l-13.406 509.415a17.17 17.17 0 0 1-2.68 8.76 17.16 17.16 0 0 1-6.801 6.14 17.15 17.15 0 0 1-8.988 1.775 17.14 17.14 0 0 1-8.623-3.095L304.748 629.84c-54.657-39.94-104.759-39.725-144.806.775a34.4 34.4 0 0 0-7.394 11.195 34.357 34.357 0 0 0 .14 26.31 34.3 34.3 0 0 0 7.512 11.115l302.586 370.175A275.004 275.004 0 0 0 675.48 1150h93.33a275.02 275.02 0 0 0 194.455-80.545A275.02 275.02 0 0 0 1043.81 875l34.375-481.25a51.563 51.563 0 0 0-51.565-51.562"/></g><defs><clipPath id="a"><path fill="#fff" d="M0 0h1200v1200H0z"/></clipPath></defs></svg>

<svg width="1200" height="1200" viewBox="0 0 1200 1200" fill="none" xmlns="http://www.w3.org/2000/svg"><g clip-path="url(#clip0_755_1844)"><path d="M1026.62 342.188C1012.945 342.188 999.83 347.62 990.16 357.29C980.49 366.959 975.06 380.075 975.06 393.75L957.87 582.81C957.87 587.37 956.06 591.745 952.84 594.965C949.615 598.19 945.245 600 940.685 600C936.125 600 931.755 598.19 928.53 594.965C925.31 591.745 923.495 587.37 923.495 582.81L906.31 153.125C906.31 139.45 900.875 126.334 891.205 116.665C881.535 106.995 868.42 101.563 854.745 101.563C841.07 101.563 827.955 106.995 818.285 116.665C808.615 126.334 803.185 139.45 803.185 153.125L785.995 548.44C785.995 552.995 784.185 557.37 780.965 560.59C777.74 563.815 773.37 565.625 768.81 565.625C764.25 565.625 759.88 563.815 756.655 560.59C753.435 557.37 751.62 552.995 751.62 548.44L734.435 101.563C734.435 87.888 729 74.772 719.33 65.102C709.665 55.432 696.545 50 682.87 50C669.195 50 656.08 55.432 646.41 65.102C636.74 74.772 631.31 87.888 631.31 101.563L614.12 582.81C614.12 587.37 612.31 591.745 609.09 594.965C605.865 598.19 601.495 600 596.935 600C592.375 600 588.005 598.19 584.78 594.965C581.56 591.745 579.745 587.37 579.745 582.81L562.56 187.5C562.56 173.825 557.125 160.709 547.455 151.04C537.79 141.37 524.675 135.938 510.995 135.938C497.322 135.938 484.207 141.37 474.537 151.04C464.868 160.709 459.435 173.825 459.435 187.5L446.029 696.915C445.944 700.025 445.019 703.055 443.349 705.675C441.679 708.3 439.329 710.425 436.548 711.815C433.768 713.21 430.661 713.825 427.56 713.59C424.458 713.36 421.478 712.29 418.937 710.495L304.748 629.84C250.091 589.9 199.989 590.115 159.942 630.615C156.767 633.825 154.254 637.625 152.548 641.81C150.842 645.99 149.976 650.465 150.001 654.98C150.025 659.495 150.938 663.96 152.688 668.12C154.438 672.285 156.99 676.06 160.2 679.235L462.786 1049.41C488.591 1080.865 521.055 1106.205 557.835 1123.6C594.615 1140.995 634.795 1150.01 675.48 1150H768.81C841.745 1150 911.69 1121.025 963.265 1069.455C1014.835 1017.88 1043.81 947.935 1043.81 875L1078.185 393.75C1078.185 380.075 1072.75 366.959 1063.08 357.29C1053.41 347.62 1040.295 342.188 1026.62 342.188Z" fill="#1D1E23"/></g><defs><clipPath id="clip0_755_1844"><path width="24" fill="white" d="M0 0H1200V1200H0V0z"/></clipPath></defs></svg>
